static/images/icon@3x.svg

<svg height="84" viewBox="0 0 90 84" width="90" xmlns="http://www.w3.org/2000/svg" xmlns:xlink="http://www.w3.org/1999/xlink"><defs><ellipse id="a" cx="49.3" cy="36.9" rx="29.75" ry="28.7"/><filter id="b" height="190.6%" width="187.4%" x="-43.7%" y="-38.3%"><feOffset dy="4" in="SourceAlpha" result="shadowOffsetOuter1"/><feGaussianBlur in="shadowOffsetOuter1" result="shadowBlurOuter1" stdDeviation="8"/><feColorMatrix in="shadowBlurOuter1" values="0 0 0 0 0.254901961 0 0 0 0 0.458823529 0 0 0 0 0.647058824 0 0 0 0.24 0"/></filter><linearGradient id="c" x1="0%" x2="149.461%" y1="0%" y2="71.875%"><stop offset="0" stop-color="#00eaf8"/><stop offset="1" stop-color="#6d42ef"/></linearGradient></defs><g fill="none" transform="translate(-4 2)"><use fill="#000" filter="url(#b)" xlink:href="#a"/><use fill="#fff" fill-rule="evenodd" xlink:href="#a"/><path d="m35.5375857 49.7513536-6.7634326 4.1739529c-.5920827.3653951-1.3810526.2014818-1.7622136-.3661106s-.2101753-1.3239282.3819074-1.6893233l7.4561531-4.6014552v-14.9254385l-13.2805858-7.3726866-13.0694142 7.367276v14.94093l7.2487721 4.5998974c.5871724.3726055.7480802 1.1309707.3593976 1.6938559-.3886826.5628853-1.1797694.7171374-1.7669418.3445319l-8.3912279-5.3248725v-17.6527311l15.6095858-8.7991799 15.1620505 8.4171773 13.0966904-7.4274976c.3963031-.2247545.887374-.2263311 1.2852198-.0041263l14.5604058 8.1322769c.3936675.2198711.6360477.6253799.6360477 1.0641256v16.3957195c0 .4181354-.2203061.8076179-.5848431 1.0339531l-8.040948 4.9924966c-.5920788.3676123-1.3810436.2027044-1.7622022-.3683321-.3811586-.5710366-.2101739-1.3319618.3819049-1.6995741l7.4561049-4.6293768v-15.0160059l-13.2805-7.417424-13.0695165 7.4120865v14.9650397l6.8237721 4.3576155c.5871724.3749644.7480802 1.1381305.3593976 1.7045792s-1.1797694.7216774-1.7669418.346713zm13.7624143 13.9858283v-15.0283447l-7.249575-4.6347361c-.5868787-.3751982-.7471888-1.1380869-.3580628-1.7039596.3891261-.5658728 1.1803342-.720445 1.7672128-.3452468l7.82 4.9994154c.3562425.2277498.570425.6124667.570425 1.0246031v16.3915257c0 .435711-.2391893.8388722-.6287202 1.0597281l-14.3395 8.1301967c-.3963055.224697-.8873797.2262732-1.285228.0041253l-14.5605-8.1301967c-.39367-.2198149-.6360518-.62522-.6360518-1.0638534v-16.3915257c0-.4180284.2203075-.8074113.5848469-1.0336886l8.041-4.9912196c.5920827-.3675182 1.3810526-.2026525 1.7622136.368238.381161.5708904.2101753 1.331621-.3819074 1.6991393l-7.4561531 4.6281927v15.0121649l13.2805858 7.4155266z" fill="url(#c)"/></g></svg>

<svg xmlns="http://www.w3.org/2000/svg" width="90" height="84" viewBox="0 0 90 84" xmlns:xlink="http://www.w3.org/1999/xlink">
  <defs>
    <ellipse id="b" cx="49.3" cy="36.9" rx="29.75" ry="28.7"/>
    <filter id="a" width="187.4%" height="190.6%" x="-43.7%" y="-38.3%" filterUnits="objectBoundingBox">
      <feOffset dy="4" in="SourceAlpha" result="shadowOffsetOuter1"/>
      <feGaussianBlur stdDeviation="8" in="shadowOffsetOuter1" result="shadowBlurOuter1"/>
      <feColorMatrix values="0 0 0 0 0.254901961 0 0 0 0 0.458823529 0 0 0 0 0.647058824 0 0 0 0.24 0" in="shadowBlurOuter1"/>
    </filter>
    <linearGradient id="c" x1="0%" x2="149.461%" y1="0%" y2="71.875%">
      <stop stop-color="#00EAF8" offset="0%"/>
      <stop stop-color="#6D42EF" offset="100%"/>
    </linearGradient>
  </defs>
  <g fill="none" transform="translate(-4 2)">
    <use fill="black" filter="url(#a)" xlink:href="#b"/>
    <use fill="#FFFFFF" fill-rule="evenodd" xlink:href="#b"/>
    <path fill="url(#c)" d="M35.5375857,49.7513536 L28.7741531,53.9253065 C28.1820704,54.2907016 27.3931005,54.1267883 27.0119395,53.5591959 C26.6307785,52.9916035 26.8017642,52.2352677 27.3938469,51.8698726 L34.85,47.2684174 L34.85,32.3429789 L21.5694142,24.9702923 L8.5,32.3375683 L8.5,47.2784983 L15.7487721,51.8783957 C16.3359445,52.2510012 16.4968523,53.0093664 16.1081697,53.5722516 C15.7194871,54.1351369 14.9284003,54.289389 14.3412279,53.9167835 L5.95,48.591911 L5.95,30.9391799 L21.5595858,22.14 L36.7216363,30.5571773 L49.8183267,23.1296797 C50.2146298,22.9049252 50.7057007,22.9033486 51.1035465,23.1255534 L65.6639523,31.2578303 C66.0576198,31.4777014 66.3,31.8832102 66.3,32.3219559 L66.3,48.7176754 C66.3,49.1358108 66.0796939,49.5252933 65.7151569,49.7516285 L57.6742089,54.7441251 C57.0821301,55.1117374 56.2931653,54.9468295 55.9120067,54.375793 C55.5308481,53.8047564 55.7018328,53.0438312 56.2939116,52.6762189 L63.7500165,48.0468421 L63.7500165,33.0308362 L50.4695165,25.6134122 L37.4,33.0254987 L37.4,47.9905384 L44.2237721,52.3481539 C44.8109445,52.7231183 44.9718523,53.4862844 44.5831697,54.0527331 C44.1944871,54.6191818 43.4034003,54.7744105 42.8162279,54.3994461 L35.5375857,49.7513536 Z M49.3,63.7371819 L49.3,48.7088372 L42.050425,44.0741011 C41.4635463,43.6989029 41.3032362,42.9360142 41.6923622,42.3701415 C42.0814883,41.8042687 42.8726964,41.6496965 43.459575,42.0248947 L51.279575,47.0243101 C51.6358175,47.2520599 51.85,47.6367768 51.85,48.0489132 L51.85,64.4404389 C51.85,64.8761499 51.6108107,65.2793111 51.2212798,65.500167 L36.8817798,73.6303637 C36.4854743,73.8550607 35.9944001,73.8566369 35.5965518,73.634489 L21.0360518,65.5042923 C20.6423818,65.2844774 20.4,64.8790723 20.4,64.4404389 L20.4,48.0489132 C20.4,47.6308848 20.6203075,47.2415019 20.9848469,47.0152246 L29.0258469,42.024005 C29.6179296,41.6564868 30.4068995,41.8213525 30.7880605,42.392243 C31.1692215,42.9631334 30.9982358,43.723864 30.4061531,44.0913823 L22.95,48.719575 L22.95,63.7317399 L36.2305858,71.1472665 L49.3,63.7371819 Z"/>
  </g>
</svg>
